X: 1
T: Arthur Darley's (the Swedish Jig)
R: jig
Z: 2020 John Chambers <jc:trillian.mit.edu>
S: https://www.facebook.com/groups/Fiddletuneoftheday/ 2020-10-02
S: https://www.facebook.com/groups/Fiddletuneoftheday/photos/
M: 6/8
L: 1/8
K: D
|:\
"A"ABA "D"AGF | "A"EDC "D"D2A | "A"Ade "D"fed | "A"edc "D"d2A |\
"A"Ade "D"fed |[M:9/8] "A"edc "G"cdd "A"BAG |
[M:6/8] "D"FED "A"EDC |\
"D"DA,B, "A"CDE | "D"Ddd "A"edd | "D"fdd "G"gee |\
"D"fed "A"edc |[1 "D"d2d "G"dcB :|
[2 "D"d2d d=c_B ||[K:=f=c][K:Dm] |:\
"Dm"A2f fef | Aff fef | Aff "Gm"Agg | "Dm"Aaa "Bb"Abb |\
"Dm"A2f fef |
Aff f2g | fed "A"ed^c |[1 "D"d2d dcB :|\
[2 d3 d2e ||[M:=B][K:D] |:\
"D"fed "A"edc | "D"cdd "G"BAG |
"D"FED "A"EDC | "D"DA,B, "A"CDE |\
"D"Ddd "A"edd | "D"fdd "G"gdd | "D"fed "A"edc |[1 "D"d3 d2e :|[1 "D"d2d dcB |]
